X:179
T:Polska efter Pelle Fors
R:sl\"angpolska
H:Fr{\aa}n br\"oderna Hellstr\"om. Jfr SvL \"Ogl 304, #141
A:\"Osterg\"otland
Z:id:hn-sp-179
M:3/4
L:1/16
K:G
G3B d2g2 b2g2 | agfg d2B2 B2{cB}A2 | [A2D2]f2 [A2D2]f2 [A2D2]f2 |
{fg}f2ef g2d2 B2G2 | G3B d2g2 b2g2 | agfg d2B2 B2{cB}A2 |
[A2D2]f2 [A2D2]f2[A2D2]f2 | {fg}f2ef g4 g4 :||: G2B2 B2d2 d3B |
cdcB c2c2 e2A2 | [A2D2]f2 [A2D2]f2[A2D2]f2 | {fg}f2ef g2d2 B2G2 |
G2B2 B2d2 d3B | cdcB c2c2 e2A2 | [A2D2]f2 [A2D2]f2[A2D2]f2 |
{fg}f2ef g4 g4 :|

